src/assets/Framed.svg

<svg width="61" height="61" viewBox="0 0 61 61" fill="none" xmlns="http://www.w3.org/2000/svg">
<foreignObject x="-20" y="-20" width="101" height="101"><div xmlns="http://www.w3.org/1999/xhtml" style="backdrop-filter:blur(10px);clip-path:url(#bgblur_0_297_505_clip_path);height:100%;width:100%"></div></foreignObject><g data-figma-bg-blur-radius="20">
<rect x="0.5" y="0.5" width="60" height="60" rx="30" fill="white" fill-opacity="0.4"/>
<rect x="0.5" y="0.5" width="60" height="60" rx="30" stroke="url(#paint0_linear_297_505)"/>
<path d="M29.9981 14C26.7347 14 23.5445 14.9677 20.8311 16.7808C18.1177 18.5938 16.0029 21.1708 14.754 24.1858C13.5052 27.2007 13.1784 30.5183 13.8151 33.719C14.4518 36.9197 16.0232 39.8597 18.3308 42.1673C20.6384 44.4748 23.5784 46.0463 26.7791 46.683C29.9798 47.3196 33.2974 46.9929 36.3123 45.744C39.3273 44.4951 41.9042 42.3803 43.7173 39.6669C45.5303 36.9535 46.4981 33.7634 46.4981 30.5C46.4931 26.1255 44.7531 21.9315 41.6598 18.8382C38.5666 15.7449 34.3726 14.005 29.9981 14ZM43.7366 36.5H39.0956C39.476 34.7746 39.6872 33.0163 39.7263 31.25H44.9598C44.8751 33.0599 44.4606 34.8391 43.7366 36.5ZM15.0363 31.25H20.2698C20.3089 33.0163 20.5202 34.7746 20.9006 36.5H16.2596C15.5355 34.8391 15.121 33.0599 15.0363 31.25ZM16.2596 24.5H20.9006C20.5202 26.2254 20.3089 27.9837 20.2698 29.75H15.0363C15.121 27.9401 15.5355 26.1609 16.2596 24.5ZM30.7481 23V15.569C33.4773 16.019 35.8211 18.896 37.1321 23H30.7481ZM37.5543 24.5C37.9609 26.2219 38.1872 27.9813 38.2293 29.75H30.7481V24.5H37.5543ZM29.2481 15.569V23H22.8641C24.1751 18.896 26.5188 16.019 29.2481 15.569ZM29.2481 24.5V29.75H21.7691C21.8112 27.9813 22.0375 26.2219 22.4441 24.5H29.2481ZM21.7691 31.25H29.2481V36.5H22.4418C22.036 34.7781 21.8105 33.0186 21.7691 31.25ZM29.2481 38V45.431C26.5188 44.981 24.1751 42.104 22.8641 38H29.2481ZM30.7481 45.431V38H37.1321C35.8211 42.104 33.4773 44.981 30.7481 45.431ZM30.7481 36.5V31.25H38.2271C38.1849 33.0187 37.9586 34.7782 37.5521 36.5H30.7481ZM39.7263 29.75C39.6872 27.9837 39.476 26.2254 39.0956 24.5H43.7366C44.4606 26.1609 44.8751 27.9401 44.9598 29.75H39.7263ZM42.9686 23H38.7078C38.0569 20.5561 36.8328 18.3026 35.1371 16.4262C38.4343 17.6372 41.2045 19.9625 42.9686 23ZM24.8591 16.4262C23.1633 18.3026 21.9392 20.5561 21.2883 23H17.0276C18.7916 19.9625 21.5618 17.6372 24.8591 16.4262ZM17.0276 38H21.2883C21.9392 40.4439 23.1633 42.6974 24.8591 44.5737C21.5618 43.3628 18.7916 41.0374 17.0276 38ZM35.1371 44.5737C36.8328 42.6974 38.0569 40.4439 38.7078 38H42.9686C41.2045 41.0374 38.4343 43.3628 35.1371 44.5737Z" fill="white"/>
</g>
<defs>
<clipPath id="bgblur_0_297_505_clip_path" transform="translate(20 20)"><rect x="0.5" y="0.5" width="60" height="60" rx="30"/>
</clipPath><linearGradient id="paint0_linear_297_505" x1="0.998047" y1="0.5" x2="60.998" y2="60.5" gradientUnits="userSpaceOnUse">
<stop offset="0.138693" stop-color="white"/>
<stop offset="0.414413" stop-color="white" stop-opacity="0"/>
</linearGradient>
</defs>
</svg>

<svg xmlns="http://www.w3.org/2000/svg" width="61" height="61" fill="none"><foreignObject width="101" height="101" x="-20" y="-20"><div xmlns="http://www.w3.org/1999/xhtml" style="backdrop-filter:blur(10px);clip-path:url(#a);height:100%;width:100%"/></foreignObject><g data-figma-bg-blur-radius="20"><rect width="60" height="60" x=".5" y=".5" fill="#fff" fill-opacity=".4" rx="30"/><rect width="60" height="60" x=".5" y=".5" stroke="url(#b)" rx="30"/><path fill="#fff" d="M29.998 14a16.5 16.5 0 1 0 16.5 16.5 16.52 16.52 0 0 0-16.5-16.5m13.739 22.5h-4.641c.38-1.725.591-3.484.63-5.25h5.234c-.085 1.81-.5 3.59-1.223 5.25m-28.7-5.25h5.233c.039 1.766.25 3.525.63 5.25h-4.64a14.9 14.9 0 0 1-1.224-5.25m1.223-6.75h4.64a27 27 0 0 0-.63 5.25h-5.234c.085-1.81.5-3.59 1.224-5.25M30.748 23v-7.431c2.73.45 5.073 3.327 6.384 7.431zm6.806 1.5c.407 1.722.633 3.481.675 5.25h-7.48V24.5zm-8.306-8.931V23h-6.384c1.311-4.104 3.655-6.981 6.384-7.431m0 8.931v5.25H21.77c.042-1.769.269-3.528.675-5.25zm-7.479 6.75h7.48v5.25h-6.807a25.5 25.5 0 0 1-.673-5.25M29.25 38v7.431c-2.73-.45-5.074-3.327-6.385-7.431zm1.5 7.431V38h6.383c-1.31 4.104-3.655 6.981-6.384 7.431m0-8.931v-5.25h7.478a25.5 25.5 0 0 1-.675 5.25zm8.977-6.75a27 27 0 0 0-.63-5.25h4.64a14.9 14.9 0 0 1 1.224 5.25zM42.97 23h-4.261a15.9 15.9 0 0 0-3.57-6.574A15.06 15.06 0 0 1 42.967 23m-18.11-6.574A15.9 15.9 0 0 0 21.29 23h-4.261a15.06 15.06 0 0 1 7.831-6.574M17.028 38h4.26a15.9 15.9 0 0 0 3.571 6.574A15.06 15.06 0 0 1 17.028 38m18.11 6.574A15.9 15.9 0 0 0 38.707 38h4.26a15.06 15.06 0 0 1-7.83 6.574"/></g><defs><linearGradient id="b" x1=".998" x2="60.998" y1=".5" y2="60.5" gradientUnits="userSpaceOnUse"><stop offset=".139" stop-color="#fff"/><stop offset=".414" stop-color="#fff" stop-opacity="0"/></linearGradient><clipPath id="a" transform="translate(20 20)"><rect width="60" height="60" x=".5" y=".5" rx="30"/></clipPath></defs></svg>
